findly-builder/apps/searchassist/src/assets/icons/safari_logo.svg

<svg width="28" height="25" viewBox="0 0 28 25" fill="none" xmlns="http://www.w3.org/2000/svg">
<path d="M25.5484 12.4997C25.5484 18.2518 20.497 22.9163 14.268 22.9163C8.03891 22.9163 2.98755 18.2518 2.98755 12.4997C2.98755 6.74759 8.03891 2.08301 14.268 2.08301C20.497 2.08301 25.5484 6.74759 25.5484 12.4997Z" fill="#CFD8DC"/>
<path d="M23.8564 12.4997C23.8564 17.3908 19.5647 21.3538 14.268 21.3538C8.97132 21.3538 4.67969 17.3908 4.67969 12.4997C4.67969 7.60853 8.97132 3.64551 14.268 3.64551C19.5647 3.64551 23.8564 7.60853 23.8564 12.4997Z" fill="#448AFF"/>
<path d="M13.0823 11.4054L15.4529 13.5945L20.6413 6.61426L13.0823 11.4054Z" fill="#FF3D00"/>
<path d="M14.2678 12.5002L20.6418 6.61426L15.4534 13.5945L14.2678 12.5002Z" fill="#BF360C"/>
<path d="M13.0825 11.4053L7.89404 18.3855L15.453 13.5943L13.0825 11.4053Z" fill="white"/>
<path d="M14.268 12.5L7.89404 18.3859L15.453 13.5948L14.268 12.5Z" fill="#BDBDBD"/>
<path d="M10.3773 5.5724C10.7146 5.41563 11.0536 5.26094 11.3909 5.15521L12.0694 6.56302L11.0536 6.97812L10.3773 5.5724ZM21.0362 13.0208H22.6707C22.6707 12.8641 22.7282 12.6568 22.7282 12.5C22.7282 12.3432 22.7282 12.1359 22.6707 11.9792H21.0362V13.0208ZM7.89393 7.34479L9.0795 8.4375L9.868 7.70937L8.68468 6.61458C8.40324 6.87448 8.17594 7.08438 7.89393 7.34479ZM14.8319 4.74063C14.6622 4.6875 14.4377 4.6875 14.2679 4.6875C14.0982 4.6875 13.8737 4.6875 13.7039 4.74063V6.25H14.8319V4.74063ZM17.8765 5.46875C17.5392 5.31198 17.2003 5.20833 16.806 5.10469L16.1845 6.56354L17.2572 6.9276L17.8765 5.46875ZM7.78169 10.6771L8.17594 9.68854L6.65365 9.11458C6.48388 9.42812 6.37164 9.73906 6.2594 10.1031L7.78169 10.6771ZM7.49968 11.9792H5.86515C5.80762 12.1359 5.80762 12.3432 5.80762 12.5C5.80762 12.6568 5.80762 12.8641 5.86515 13.0208H7.49968V11.9792ZM20.7542 14.3229L20.3599 15.3115L21.8822 15.8854C22.052 15.5719 22.1642 15.2609 22.2764 14.8969L20.7542 14.3229ZM22.2217 9.84271C22.1072 9.53125 21.9397 9.21823 21.77 8.90677L20.2477 9.53125L20.6972 10.4693L22.2217 9.84271ZM20.6419 17.6552L19.4563 16.5625L18.6678 17.2906L19.8512 18.3854C20.1326 18.1255 20.3599 17.9156 20.6419 17.6552ZM8.28818 15.4682L7.83865 14.5302L6.31411 15.1568C6.4286 15.4682 6.59612 15.7812 6.76589 16.0927L8.28818 15.4682ZM17.4823 18.0219L16.4665 18.437L17.145 19.8448C17.4823 19.7391 17.8212 19.5844 18.1585 19.4276L17.4823 18.0219ZM12.2938 18.4896L11.2233 18.1255L10.6018 19.5312C10.9413 19.688 11.278 19.7917 11.6723 19.8953L12.2938 18.4896ZM14.8319 20.2594V18.75H13.7039V20.2594C13.8737 20.2594 14.0982 20.3125 14.2679 20.3125C14.4377 20.3125 14.6622 20.3125 14.8319 20.2594Z" fill="#BBDEFB"/>
</svg>

<svg width="28" height="25" fill="none" xmlns="http://www.w3.org/2000/svg"><path d="M25.548 12.5c0 5.752-5.051 10.416-11.28 10.416-6.23 0-11.28-4.664-11.28-10.416 0-5.752 5.05-10.417 11.28-10.417 6.229 0 11.28 4.665 11.28 10.417Z" fill="#CFD8DC"/><path d="M23.856 12.5c0 4.89-4.291 8.854-9.588 8.854-5.297 0-9.588-3.963-9.588-8.854 0-4.891 4.291-8.854 9.588-8.854 5.297 0 9.588 3.963 9.588 8.854Z" fill="#448AFF"/><path d="m13.082 11.405 2.37 2.19 5.19-6.98-7.56 4.79Z" fill="#FF3D00"/><path d="m14.268 12.5 6.374-5.886-5.189 6.98-1.185-1.094Z" fill="#BF360C"/><path d="m13.082 11.405-5.188 6.98 7.559-4.79-2.37-2.19Z" fill="#fff"/><path d="m14.268 12.5-6.374 5.886 7.559-4.791-1.185-1.095Z" fill="#BDBDBD"/><path d="M10.377 5.572a8.492 8.492 0 0 1 1.014-.417l.678 1.408-1.015.415-.677-1.406Zm10.66 7.449h1.634c0-.157.057-.364.057-.521 0-.157 0-.364-.057-.52h-1.635v1.04ZM7.893 7.345l1.185 1.093.789-.729-1.183-1.094-.791.73Zm6.938-2.604c-.17-.053-.394-.053-.564-.053-.17 0-.394 0-.564.053V6.25h1.128V4.74Zm3.044.728a6.217 6.217 0 0 0-1.07-.364l-.622 1.459 1.073.364.62-1.46ZM7.783 10.677l.394-.988-1.522-.574c-.17.313-.282.624-.395.988l1.523.574ZM7.5 11.98H5.865c-.057.157-.057.364-.057.521 0 .157 0 .364.057.52H7.5v-1.04Zm13.254 2.344-.394.989 1.522.573a5.24 5.24 0 0 0 .394-.988l-1.522-.574Zm1.468-4.48a7.249 7.249 0 0 0-.452-.936l-1.522.624.45.938 1.524-.626Zm-1.58 7.812-1.186-1.093-.788.729 1.183 1.094.79-.73ZM8.288 15.468l-.45-.938-1.524.627c.115.311.282.624.452.936l1.522-.625Zm9.194 2.554-1.015.415.678 1.408c.337-.106.676-.26 1.014-.417l-.677-1.406Zm-5.188.468-1.07-.364-.622 1.405c.34.157.676.26 1.07.364l.622-1.405Zm2.538 1.77v-1.51h-1.128v1.51c.17 0 .394.052.564.052.17 0 .394 0 .564-.053Z" fill="#BBDEFB"/></svg>
